X: 21424
T: Ketchup On The Kilt
R: reel
M: 4/4
K: Amixolydian
|:c2 BA ABcA|dcde g2 fa|c2 BA ABcA|(3GGG AcBG (3GGG|
c2 BA ABcA|dcde g2 fa|gefd ecdB|(3GGG BG A2 A2:|
|:a2 ea cAeA|(3GGG BcdB (3GGG|a2 ea cAeA|(3GGG Bcd2 cB|
a2 ea cAeA|(3GGG BcdB (3GGG|afge fdec|Bcdc BG (3GGG:|
|:cded cA (3AAA|Bcdc BG (3GGG|cded ceAe|(3GGG Bc d2 cB:|
|:a2 eacA (3AAA|g2 dgdA (3GGG|a2 ea caef|gfgd BA (3GGG:|
|:a2 eacA (3AAA|gfgd BA (3GGG|afge fded|Bcdc BG (3GGG:|

